X:1
T:CHARLESTON
T:CHARLESTON
T:Words and Music by CECIL MACK & JIMMY JOHNSON
T:Copyright 1923 by Harms, Inc.,
T:Copyright 1923 by Harms, Inc.,
T:Copyright 1923 by Harms, Inc.,
T:Copyright 1923 by Harms, Inc.,
T:Copyright 1923 by Harms, Inc.,
T:Copyright 1923 by Harms, Inc.,
T:Copyright 1923 by Harms, Inc.,
C:Words and Music by
Z:Copyright 1923 by Harms, Inc.,
%%score 1 { ( 2 3 ) | ( 4 5 ) }
L:1/8
Q:1/4=190
M:2/2
K:Bb
V:1 treble nm="Voice"
V:2 treble nm="Piano"
V:3 treble 
V:4 bass 
V:5 bass 
V:1
"^Animato" z8 | z8 | z8 | z8 | z8 | z8 | z8 | z8 || G G2 G- G2 D2 | B B2 B- B2 G G | %10
w: ||||||||Car- o- lin- * a,|Car- o- lin- * a, At|
 c3/2 d/ c3/2 d/ B A2 G- | G6 z2 | G G2 G- G2 D2 | B B2 B- B2 G2 | z A G ^F (=EF) G A- | %15
w: last they're got you on the map,|_|With a new _ tune,|Fun- ny blue _ tune,|With a pe- cu- * liar snap!|
 A4- A z e3/2 d/ | e2 c2 c>d e2 | d B2 B- B4 | c2 c2 A3/2 B/ c2 | B G2 B- B2 A B | c2 c A d d3 | %21
w: _ _ You may|not be a- ble to|buck or wing, *|Fox- trot, two- step, or|e- ven sing, * If you|ain't got re- li- gion,|
 c c2 d- d2 A B | c2 B2 A2 G2 | A B2 c- c2 z2 |:[M:2/2]"^REFRAIN" F2 z"^con spirito" F- F4 | %25
w: in your feet, * You can|do this prance and|do it neat. *|Charles- ton! *|
 ^F2 z F- F4 | G2 z G- G3/2 ^F/ G2 | d2 z G- G4 | G2 z d- d4 | G2 z d- d4 | G2 z B- B4 | %31
w: Charles- ton! *|Made in * Car- o-|lin- a, _|Some dance, *|Some prance, *|I'll say, *|
 A c A G- G A G _G | F2 z F- F4 | ^F2 z F- F4 | G2 z G- G3/2 ^F/ G2 | d2 z d- d4 | %36
w: There's noth- ing fin- * er than the|Charles- ton _|Charles- ton, _|Lord how _ you can|shuf- fle, _|
 z A A A- A G F2 | z G G G- G F =E2 | z A A A- A G ^F2 | z A A A- A G =F2 | F2 z F- F4 | %41
w: Ev- 'ry step- * you do,|Leads to some- * thing new,|Man I'm tell- * ing you,|It's a la- * pa- zoo,|Buck dance, *|
 ^F2 z F- F4 | G2 z G- G3/2 ^F/ G2 | d2 z G- G z G3/2 G/ | G2 z d- d3/2 ^c/ d2 | G2 z d- d4 | %46
w: Wing dance, *|Will be _ a back|num- ber, _ But the|Charles- ton _ the new|Charles- ton *|
 G2 z B- B2 B2 | A c A G- G2 F2 | G2 z G- G4 | z2 c2- c3/2 B/ c2 | B2 z B- B4 | z2 B c2 B c2 | %52
w: That dance * is|sure- ly a com- * er|Some- time, *|You'll * dance it|one time, _|The dance called the|
 G2 z G- G4 | z F G A- A G F2 | B8- |1 B z z2 z4 :|2 B z z2 z4 |] %57
w: Charles- ton, _|Made in South * Car- o-|line.|_||
V:2
!f! [B,DB]2 z [B,DB]- B4 | z2 !>![D_Ac]2- ([DAc]>B [DAc]2) | [B,GB]2 z [B,GB]- ([B,B]4 | %3
 z2) !>![C=Ec]2- ([CEc]>B [CEc]2) | [_B,FG]2 z [B,FG]- G4- | GFG[CEA]- [CEA][B,G] [A,EF]2 | B8- | %7
!<(! B2 z2!<)!!sfz! !arpeggio!.[C^FAd]2 z2 ||!p! [B,DG] [B,DG]2 !>![B,DG]- [B,DG]2 [B,D]2 | %9
 [B,DB] [B,DB]2 !>![B,DB]- [B,DB]2 [B,DG]2 | c>dc>d [D^FB] [CEA]2 [B,DG]- | %11
 [B,DG].^C.D!>![B,E]- EDCD | [B,DG] [B,DG]2 !>![B,DG]- [B,DG]2 [B,D]2 | %13
 [B,DB] [B,DB]2 !>![B,DB]- [B,DB]2 [B,DG]2 | z ([^CA][=B,G][A,^F] [G,=B,=E][A,F][B,CG][A,DA]-) | %15
 A4- .A z ([ce]>[=Bd]) | [ce]2 [Ac]2 ([Ac]>[_Bd] [ce]2) | [Bd] [DB]2 [DB]- [DB]4 | %18
 [Ac]2 [Ac]2 [^FA]>[GB] [Ac]2 | [GB] [B,G]2 !>![GB]- [GB]2 ([=FA][GB]) | %20
 (([Ac]2 [Ac])[FA]) [^Gd] [Gd]3 | [Ac]!<(! [Ac]2 !>![FAd]-!<)! [FAd]2 AB | %22
 !tenuto![=Ec]2 !tenuto![D_EB]2 !tenuto![=EA]2 !tenuto![EG]2 | %23
 [C_EA] [C=EB]2 !>![C_Ec]- [CEc]2 !>![A,EF]2 |:[M:2/2]!p!!f!"_-" [B,DF]2 z !>![B,DF]- F4 | %25
 [!courtesy!=CD^F]2 z !>![CDF]- F4 | [=B,=FG]2 z !>![B,FG]- [B,FG]>^F [B,=FG]2 | %27
 [F=Bd]2 z !>![=B,FG]- G4 | [_B,=EG]2 z !>![EBd]- [EBd]>(^c [EBd]2) | %29
 [A,_EG]2 z !>![EAd]- [EAd]>(^c [EAd]2) | [B,FG]2 z !>![B,FB]- [B,FB]>(G [B,=EB]2) | %31
 [A,_EA]cA!>![A,EG]- GA[A,EG]_G | [B,DF]2 z !>![B,DF]- F4 | [!courtesy!=CD^F]2 z !>![CDF]- F4 | %34
 [=B,=FG]2 z !>![B,FG]- [B,FG]>^F!<(! [B,=FG]2 | [D_Bd]2 z!<)! !>![DBd]- d4 | %36
 z!<(! ([FA][FA]!^![FA]-!<)!!>(! [FA][=EG] .[DF]2)!>)! | %37
 z!<(! ([=EG][EG]!^![EG]-!<)!!>(! [EG][DF] .[^CE]2)!>)! | %38
 z!<(! ([!courtesy!=C^FA][CFA]!^![CFA]-!<)!!>(! [CFA][_B,=EG] .[A,D!courtesy!^F]2)!>)! | %39
 z!<(! ([A,_EA][A,_EA]!^![A,_EA]-!<)!!>(! AG .=F2)!>)! | [B,DF]2 z !>![B,DF]- F4 | %41
 [!courtesy!=CD^F]2 z !>![CDF]- F4 | [=B,=FG]2 z !>![B,FG]- [B,FG]>^F [B,=FG]2 | %43
 [F=Bd]2 z !>![=B,FG]- G2 G>G | [_B,=EG]2 z !>![EBd]- [EBd]>(^c [EBd]2) | %45
 [A,_EG]2 z !>![EAd]- [EAd]>(^c [EAd]2) | [B,FG]2 z !>![B,FB]- [B,FB]>(G [B,=EB]2) | %47
 [A,_EA]cA!>![A,EG]- [A,EG]2 [A,EF]2 | [B,DB]2 z !>![B,DB]- B4 | z2 !>![D_Ac]2- ([DAc]>B [DAc]2) | %50
 [B,GB]2 z !>![B,GB]- ([B,B]4 | z2) [C=EB] !>![CEc]2 [CEB] [CEc]2 | %52
 [!courtesy!_B,FG]2 z !>![B,FG]- G4- | GFG!>![CEA]- [CEA][B,G] !>![A,EF]2 | B8- |1 %55
 B2 F!>![D^G]- [DG]F (!>![E=A]2 :|2 B2) z2 !>![B,DFB]2 z2 |] %57
V:3
 x4 [B,D]2 !>![B,DG]2 | !>![B,D_A]2 x6 | x4 G_G =F2 | [B,=E]2 x6 | x4 [B,F]2 ([B,=E]2 | %5
 [A,_E]3) x5 | [B,D]2 [DF]!>![CE]- [CE][DF] [CE]2 | [B,D]2 x6 || x8 | x8 | [CG]4 x4 | x4 B,4 | x8 | %13
 x8 | x8 | [A,D][A,D] [A,D]2 .[A,_E] z x2 | x8 | x8 | x8 | x8 | x8 | x6 F2 | x4 C=B, _B,2 | x8 |: %24
[M:2/2] x4 [B,D]>^C [B,D]2 | x4 [CD]>((^C [=CD]2)) | x8 | x4 [B,F]>^C [=B,D]2 | x8 | x8 | x8 | %31
 x4 [A,E]2 x2 | x4 [B,D]>^C [B,D]2 | x4 [CD]>((^C [=CD]2)) | x8 | x4 [DB]>A [DG]2 | x8 | x8 | x8 | %39
 x4 [A,E]2 [A,E]2 | x4 [B,D]>^C [B,D]2 | x4 [CD]>((^C [=CD]2)) | x8 | x4 [B,F]>^C [=B,DF]2 | x8 | %45
 x8 | x8 | x8 | x4 [B,D]2 !>![B,DG]2 | !>![B,D_A]2 x6 | x4 G_G =F2 | [B,=E]2 x6 | %52
 x4 [B,F]2 ([B,=E]2 | [A,_E]3) x5 | [B,D]2 [DF]!>![CE]- [CE][DF] (([CE]2 |1 [B,D]2)) x6 :|2 %56
 [B,D]2 x6 |] %57
V:4
 [G,,G,]2 z2 z2 [G,,G,]2 | [F,,F,]4 z2 [B,,,B,,]2 | [E,,E,]2 z2 z ([=E,,=E,] [F,,F,]2 | %3
 [_G,,_G,]6) z2 | [D,,D,]2 z2 z2 (([_D,,_D,]2 | [C,,C,]3)) [F,,F,]- [F,,F,]2 [F,,F,]2 | %6
 z2 _A,!>!_G,- G,A, G,2 | F,2 z2 !arpeggio![D,,A,,^F,]2 z2 || G,4 F,4 | =E,4 =E,,4 | _E,,4 D,,4 | %11
 z .^C,.D,!>!E,- E,D,C,D, | G,4 F,4 | =E,4 =E,,3 (3^F,,/G,,/^G,,/ | A,,2 z2 A,,,4 | %15
 [^F,,^F,]4 [=F,,=F,] z z2 | %16
 !arpeggio![F,,C,A,]2 !arpeggio![F,,C,A,]2 !arpeggio![F,,C,A,]2 !arpeggio![F,,C,A,]2 | %17
 !arpeggio![B,,F,B,]2 !arpeggio![B,,F,B,]2 !arpeggio![B,,F,B,]2 !arpeggio![B,,F,B,]2 | %18
 !arpeggio![A,,^F,]2 !arpeggio![A,,F,]2 !arpeggio![A,,F,]2 !arpeggio![A,,F,]2 | %19
 !arpeggio![G,,D,G,]2 !arpeggio![G,,D,G,]2 !arpeggio![G,,D,G,]2 z2 | !>![F,C]4 !>![F,=B,]4 | %21
 (C4 D2) _D2 | [C,C]4 [C,,C,]4 | [F,,F,] [G,,G,]2 !>![A,,A,]- [A,,A,]2 !>![F,,F,]2 |: %24
[M:2/2] [B,,,B,,]2 z !>![B,,,B,,]- [B,,,B,,]4 | [A,,,A,,]2 z !>![A,,,A,,]- [A,,,A,,]4 | %26
 [G,,,G,,]2 z !>![G,,,G,,]- [G,,,G,,]4 | [G,,,G,,]2 z !>![G,,,G,,]- [G,,,G,,]4 | %28
 [C,,C,]2 z !>![C,,C,]- [C,,C,]4 | [F,,C,]2 z !>![F,,C,]- [F,,C,]4 | %30
 [D,,D,]2 z !>![D,,D,]- [D,,D,]2 [_D,,_D,]2 | [C,,C,]2 z !>![F,,C,]- [F,,C,]2 [F,,C,]2 | %32
 [B,,,B,,]2 z !>![B,,,B,,]- [B,,,B,,]4 | [A,,,A,,]2 z !>![A,,,A,,]- [A,,,A,,]4 | %34
 [G,,,G,,]2 z !>![G,,,G,,]- [G,,,G,,]4 | [=E,,=E,]2 z !>![E,,E,]- [E,,E,]3 G,,/^G,,/ | %36
 !>!A,,7 G,,/^G,,/ | !>!A,,7 C,/^C,/ | !>!D,7 A,,/_B,,/ | !>!C,6 F,,2 | %40
 [B,,,B,,]2 z !>![B,,,B,,]- [B,,,B,,]4 | [A,,,A,,]2 z !>![A,,,A,,]- [A,,,A,,]4 | %42
 [G,,,G,,]2 z !>![G,,,G,,]- [G,,,G,,]4 | [G,,,G,,]2 z !>![G,,,G,,]- [G,,,G,,]4 | %44
 [C,,C,]2 z !>![C,,C,]- [C,,C,]4 | [F,,C,]2 z !>![F,,C,]- [F,,C,]4 | %46
 [D,,D,]2 z !>![D,,D,]- [D,,D,]2 [_D,,_D,]2 | [C,,C,]2 z !>![F,,C,]- [F,,C,]2 [F,,C,]2 | %48
 [G,,G,]2 z2 z2 [G,,G,]2 | [F,,F,]4 z2 [B,,,B,,]2 | [E,,E,]2 z2 z (([=E,,=E,] [F,,F,]2 | %51
 [_G,,_G,]6)) z2 | [D,,D,]2 z2 z2 (([_D,,_D,]2 | [C,,C,]3)) !>![F,,F,]- [F,,F,]2 !>![F,,F,]2 | %54
 z2 _A,!>!_G,- G,A, (G,2 |1 F,2) z [=B,,F,]- [B,,F,]2 ([C,F,]2 :|2 F,2) z2 !>![B,,,B,,]2 z2 |] %57
V:5
 x8 | x8 | x8 | x8 | x8 | x8 | B,,8- | B,,2 x6 || x8 | x8 | x8 | G,,8 | x8 | x8 | x8 | x8 | x8 | %17
 x8 | x8 | x8 | x8 | (F,2 =E,2 D,2) _D,2 | x8 | x8 |:[M:2/2] x8 | x8 | x8 | x8 | x8 | x8 | x8 | %31
 x8 | x8 | x8 | x8 | x8 | x8 | x8 | x8 | x8 | x8 | x8 | x8 | x8 | x8 | x8 | x8 | x8 | x8 | x8 | %50
 x8 | x8 | x8 | x8 | B,,8- |1 B,,2 x6 :|2 B,,2 x6 |] %57

